assets/images/icons/tabs_location.svg

<svg width="52" height="42" viewBox="0 0 52 42" fill="none" xmlns="http://www.w3.org/2000/svg">
<path d="M7.61988 6.67326C9.7262 5.41812 12.1836 4.66504 14.7914 4.66504C22.4143 4.66504 28.5327 10.8403 28.5327 18.4213C28.5327 24.5464 24.4203 30.4205 20.9098 35.0394C20.2077 35.9933 19.5557 36.9472 18.8536 37.7505C16.9479 40.0599 15.8446 40.8632 14.7413 40.8632C13.6379 40.8632 12.5346 40.0599 10.6289 37.7505C9.97696 36.9472 9.325 35.9933 8.57274 35.0394C5.11235 30.4205 1 24.5464 1 18.4715C1 14.6559 2.55467 11.242 5.01205 8.73168" stroke="#79655E" stroke-width="2" stroke-miterlimit="10" stroke-linecap="round" stroke-linejoin="round"/>
<path d="M20.7093 18.4712C20.7093 21.7848 18.0513 24.4457 14.7414 24.4457C11.4314 24.4457 8.77344 21.7848 8.77344 18.4712C8.77344 15.1577 11.4314 12.4968 14.7414 12.4968C18.0513 12.4466 20.7093 15.1577 20.7093 18.4712Z" stroke="#79655E" stroke-width="2" stroke-miterlimit="10" stroke-linecap="round" stroke-linejoin="round"/>
<path d="M43.7788 1C47.7909 1 51.0005 4.26336 51.0005 8.22959C51.0005 11.4427 48.844 14.5053 46.9884 16.9653C46.5872 17.4674 46.2863 17.9695 45.9353 18.3711C44.9323 19.576 44.3305 19.9777 43.7788 19.9777C43.2272 19.9777 42.6253 19.576 41.6223 18.3711C41.2713 17.9695 40.9202 17.4674 40.5692 16.9653C38.7136 14.5053 36.5571 11.4427 36.5571 8.22959C36.5571 4.26336 39.8169 1 43.7788 1Z" stroke="#79655E" stroke-width="2" stroke-miterlimit="10" stroke-linecap="round" stroke-linejoin="round"/>
<path d="M46.9381 8.22935C46.9381 9.98654 45.5339 11.3923 43.7786 11.3923C42.0234 11.3923 40.6191 9.98654 40.6191 8.22935C40.6191 6.47216 42.0234 5.06641 43.7786 5.06641C45.5339 5.11661 46.9381 6.52236 46.9381 8.22935Z" stroke="#79655E" stroke-width="2" stroke-miterlimit="10" stroke-linecap="round" stroke-linejoin="round"/>
<path d="M39.1654 20.3789C39.1654 20.3789 38.6639 20.3789 37.9116 20.3789" stroke="#79655E" stroke-width="2" stroke-linecap="round" stroke-linejoin="round"/>
<path d="M35.4038 20.6797C33.5482 21.0311 31.6926 21.8846 31.6926 23.6418C31.6926 27.9093 48.8441 26.6039 48.9946 32.2772C49.0447 35.6409 45.8853 39.1553 17.8511 40.6615" stroke="#79655E" stroke-width="2" stroke-linecap="round" stroke-linejoin="round" stroke-dasharray="5.05 5.05"/>
<path d="M16.597 40.7627C16.1958 40.7627 15.7445 40.8129 15.3433 40.8129" stroke="#79655E" stroke-width="2" stroke-linecap="round" stroke-linejoin="round"/>
</svg>

<svg width="52" height="42" fill="none" xmlns="http://www.w3.org/2000/svg"><path d="M7.62 6.673c2.106-1.255 4.564-2.008 7.171-2.008 7.623 0 13.742 6.175 13.742 13.756 0 6.125-4.113 12-7.623 16.618-.702.954-1.354 1.908-2.056 2.712-1.906 2.309-3.01 3.112-4.113 3.112-1.103 0-2.206-.803-4.112-3.112-.652-.804-1.304-1.758-2.056-2.712C5.113 30.42 1 24.546 1 18.471c0-3.815 1.555-7.229 4.012-9.74" stroke="#79655E" stroke-width="2" stroke-miterlimit="10" stroke-linecap="round" stroke-linejoin="round"/><path d="M20.71 18.471a5.953 5.953 0 01-5.969 5.975 5.953 5.953 0 01-5.968-5.975 5.953 5.953 0 015.968-5.974c3.31-.05 5.968 2.66 5.968 5.974zM43.779 1C47.79 1 51 4.263 51 8.23c0 3.213-2.156 6.275-4.012 8.735-.4.502-.702 1.005-1.053 1.406-1.003 1.205-1.605 1.607-2.156 1.607-.552 0-1.154-.402-2.157-1.607-.35-.401-.702-.904-1.053-1.406-1.855-2.46-4.012-5.522-4.012-8.735 0-3.967 3.26-7.23 7.222-7.23z" stroke="#79655E" stroke-width="2" stroke-miterlimit="10" stroke-linecap="round" stroke-linejoin="round"/><path d="M46.938 8.23a3.148 3.148 0 01-3.16 3.162A3.148 3.148 0 0140.62 8.23a3.148 3.148 0 013.16-3.163c1.755.05 3.16 1.456 3.16 3.163z" stroke="#79655E" stroke-width="2" stroke-miterlimit="10" stroke-linecap="round" stroke-linejoin="round"/><path d="M39.165 20.379h-1.253" stroke="#79655E" stroke-width="2" stroke-linecap="round" stroke-linejoin="round"/><path d="M35.404 20.68c-1.856.351-3.711 1.205-3.711 2.962 0 4.267 17.151 2.962 17.302 8.635.05 3.364-3.11 6.878-31.144 8.384" stroke="#79655E" stroke-width="2" stroke-linecap="round" stroke-linejoin="round" stroke-dasharray="5.05 5.05"/><path d="M16.597 40.763c-.401 0-.853.05-1.254.05" stroke="#79655E" stroke-width="2" stroke-linecap="round" stroke-linejoin="round"/></svg>
